icons/smiley-24.svg

<svg xmlns="http://www.w3.org/2000/svg" width="24" height="24" viewBox="0 0 24 24"><path d="M8.456 14.494a.75.75 0 011.068.17 3.08 3.08 0 00.572.492A3.381 3.381 0 0012 15.72c.855 0 1.487-.283 1.904-.562a3.081 3.081 0 00.572-.492l.021-.026a.75.75 0 011.197.905l-.027.034c-.013.016-.03.038-.052.063-.044.05-.105.119-.184.198a4.569 4.569 0 01-.695.566A4.88 4.88 0 0112 17.22a4.88 4.88 0 01-2.736-.814 4.57 4.57 0 01-.695-.566 3.253 3.253 0 01-.236-.261c-.259-.332-.223-.824.123-1.084z"/><path d="M12 1c6.075 0 11 4.925 11 11s-4.925 11-11 11S1 18.075 1 12 5.925 1 12 1zM2.5 12a9.5 9.5 0 009.5 9.5 9.5 9.5 0 009.5-9.5A9.5 9.5 0 0012 2.5 9.5 9.5 0 002.5 12z"/><path d="M9 10.75a1.25 1.25 0 11-2.5 0 1.25 1.25 0 012.5 0zM16.25 12a1.25 1.25 0 100-2.5 1.25 1.25 0 000 2.5z"/></svg>

<svg xmlns="http://www.w3.org/2000/svg" width="24" height="24" viewBox="0 0 24 24">
  <defs/>
  <path d="M8.456,14.494 A0.75 0.75 0 0 1 9.524,14.664 A3.08 3.08 0 0 0 10.096,15.156 A3.381 3.381 0 0 0 12,15.72 C12.855,15.72 13.487,15.437 13.904,15.158 A3.081 3.081 0 0 0 14.476,14.666 L14.497,14.64 A0.75 0.75 0 0 1 15.694,15.545 L15.667,15.579 C15.654,15.595 15.637,15.617 15.615,15.642 C15.571,15.692 15.51,15.761 15.431,15.84 A4.569 4.569 0 0 1 14.736,16.406 A4.88 4.88 0 0 1 12,17.22 A4.88 4.88 0 0 1 9.264,16.406 A4.57 4.57 0 0 1 8.569,15.84 A3.253 3.253 0 0 1 8.333,15.579 C8.074,15.247 8.11,14.755 8.456,14.495 Z"/>
  <path d="M12,1 C18.075,1 23,5.925 23,12 C23,18.075 18.075,23 12,23 C5.925,23 1,18.075 1,12 C1,5.925 5.925,1 12,1 Z M2.5,12 C2.5,17.247 6.753,21.5 12,21.5 C17.247,21.5 21.5,17.247 21.5,12 C21.5,6.753 17.247,2.5 12,2.5 C6.753,2.5 2.5,6.753 2.5,12 Z"/>
  <path d="M9,10.75 A1.25 1.25 0 1 1 6.5,10.75 A1.25 1.25 0 0 1 9,10.75 Z M16.25,12 A1.25 1.25 0 1 0 16.25,9.5 A1.25 1.25 0 0 0 16.25,12 Z"/>
</svg>
